src/assets/images/realtime/realtimekit/web/components-gallery/rtk-sidebar.svg

<svg width="400" height="300" viewBox="0 0 400 300" fill="none" xmlns="http://www.w3.org/2000/svg" xmlns:xlink="http://www.w3.org/1999/xlink">
<g clip-path="url(#clip0_9763_13024)">
<rect width="400" height="300" fill="white"/>
<g style="mix-blend-mode:darken">
<path d="M0 4.21053C0 1.88512 1.88512 0 4.21053 0H395.789C398.115 0 400 1.88512 400 4.21053V295.789C400 298.115 398.115 300 395.789 300H4.21054C1.88513 300 0 298.115 0 295.789V4.21053Z" fill="url(#pattern0_9763_13024)"/>
</g>
<rect x="29" y="30" width="342" height="239" rx="6" fill="#262626"/>
<rect x="266" y="36" width="100" height="228" rx="3" fill="#474747"/>
<g clip-path="url(#clip1_9763_13024)">
<path d="M357.15 42.8551C357.104 42.8088 357.049 42.772 356.988 42.7469C356.928 42.7218 356.863 42.7089 356.798 42.7089C356.732 42.7089 356.667 42.7218 356.607 42.7469C356.546 42.772 356.491 42.8088 356.445 42.8551L354 45.2951L351.555 42.8501C351.509 42.8038 351.454 42.7671 351.393 42.742C351.333 42.717 351.268 42.7041 351.203 42.7041C351.137 42.7041 351.072 42.717 351.012 42.742C350.951 42.7671 350.896 42.8038 350.85 42.8501C350.804 42.8964 350.767 42.9514 350.742 43.0118C350.717 43.0723 350.704 43.1371 350.704 43.2026C350.704 43.2681 350.717 43.3329 350.742 43.3934C350.767 43.4539 350.804 43.5088 350.85 43.5551L353.295 46.0001L350.85 48.4451C350.804 48.4914 350.767 48.5464 350.742 48.6068C350.717 48.6673 350.704 48.7321 350.704 48.7976C350.704 48.8631 350.717 48.9279 350.742 48.9884C350.767 49.0489 350.804 49.1038 350.85 49.1501C350.896 49.1964 350.951 49.2331 351.012 49.2582C351.072 49.2832 351.137 49.2961 351.203 49.2961C351.268 49.2961 351.333 49.2832 351.393 49.2582C351.454 49.2331 351.509 49.1964 351.555 49.1501L354 46.7051L356.445 49.1501C356.491 49.1964 356.546 49.2331 356.607 49.2582C356.667 49.2832 356.732 49.2961 356.798 49.2961C356.863 49.2961 356.928 49.2832 356.988 49.2582C357.049 49.2331 357.104 49.1964 357.15 49.1501C357.196 49.1038 357.233 49.0489 357.258 48.9884C357.283 48.9279 357.296 48.8631 357.296 48.7976C357.296 48.7321 357.283 48.6673 357.258 48.6068C357.233 48.5464 357.196 48.4914 357.15 48.4451L354.705 46.0001L357.15 43.5551C357.34 43.3651 357.34 43.0451 357.15 42.8551Z" fill="#DDDDDD"/>
</g>
</g>
<defs>
<pattern id="pattern0_9763_13024" patternContentUnits="objectBoundingBox" width="0.0368421" height="0.0491228">
<use xlink:href="#image0_9763_13024" transform="scale(0.000657895 0.000877193)"/>
</pattern>
<clipPath id="clip0_9763_13024">
<rect width="400" height="300" fill="white"/>
</clipPath>
<clipPath id="clip1_9763_13024">
<rect width="12" height="12" fill="white" transform="translate(348 40)"/>
</clipPath>
<image id="image0_9763_13024" width="56" height="56" preserveAspectRatio="none" xlink:href="data:image/png;base64,iVBORw0KGgoAAAANSUhEUgAAADgAAAA4CAYAAACohjseAAAACXBIWXMAACxLAAAsSwGlPZapAAAAAXNSR0IArs4c6QAAAARnQU1BAACxjwv8YQUAAADdSURBVHgB7dmxDoMgFIXhCzEmbsbF9388F8PGAKHt6dSksvXaHHK+EQbzB0Sj4fFiA4s2OAWyUyA7BbJTIDsFslMgOwWyUyA7BbJTIDsFspvsBrVWO8/TSinWWrNlWWxdV5sm/8sH7w+/iDuO4x32KcZo+767R7pv0ZTSVxxgDKvqzT0w59ydw5b15h4YQujOXa3sr7kHzvPcncNh4809cNu2y1XEGE5Sb+GO32c4SXHY4H5EGFYV4UM8Jv5Nr2rsFMhOgewUyE6B7BTIToHsFMhOgewUyE6B7IYPfALcB0NZ5j6jXgAAAABJRU5ErkJggg=="/>
</defs>
</svg>

<svg xmlns="http://www.w3.org/2000/svg" xmlns:xlink="http://www.w3.org/1999/xlink" width="400" height="300" fill="none" viewBox="0 0 400 300"><g clip-path="url(#clip0_9763_13024)"><path fill="#fff" d="M0 0h400v300H0z"/><path fill="url(#pattern0_9763_13024)" d="M0 4.21A4.21 4.21 0 0 1 4.21 0h391.58A4.21 4.21 0 0 1 400 4.21v291.58a4.21 4.21 0 0 1-4.211 4.211H4.211A4.21 4.21 0 0 1 0 295.789z" style="mix-blend-mode:darken"/><rect width="342" height="239" x="29" y="30" fill="#262626" rx="6"/><rect width="100" height="228" x="266" y="36" fill="#474747" rx="3"/><g clip-path="url(#clip1_9763_13024)"><path fill="#ddd" d="M357.15 42.855a.5.5 0 0 0-.352-.146.5.5 0 0 0-.353.146L354 45.295l-2.445-2.445a.5.5 0 0 0-.352-.146.497.497 0 0 0-.461.69q.038.091.108.161L353.295 46l-2.445 2.445a.5.5 0 0 0-.108.543.5.5 0 0 0 .461.308.5.5 0 0 0 .352-.146L354 46.705l2.445 2.445a.5.5 0 0 0 .353.146.5.5 0 0 0 .46-.308.5.5 0 0 0-.108-.543L354.705 46l2.445-2.445c.19-.19.19-.51 0-.7"/></g></g><defs><clipPath id="clip0_9763_13024"><path fill="#fff" d="M0 0h400v300H0z"/></clipPath><clipPath id="clip1_9763_13024"><path fill="#fff" d="M348 40h12v12h-12z"/></clipPath><pattern id="pattern0_9763_13024" width=".037" height=".049" patternContentUnits="objectBoundingBox"><use xlink:href="#image0_9763_13024" transform="scale(.00066 .00088)"/></pattern><image xlink:href="data:image/png;base64,iVBORw0KGgoAAAANSUhEUgAAADgAAAA4CAYAAACohjseAAAACXBIWXMAACxLAAAsSwGlPZapAAAAAXNSR0IArs4c6QAAAARnQU1BAACxjwv8YQUAAADdSURBVHgB7dmxDoMgFIXhCzEmbsbF9388F8PGAKHt6dSksvXaHHK+EQbzB0Sj4fFiA4s2OAWyUyA7BbJTIDsFslMgOwWyUyA7BbJTIDsFspvsBrVWO8/TSinWWrNlWWxdV5sm/8sH7w+/iDuO4x32KcZo+767R7pv0ZTSVxxgDKvqzT0w59ydw5b15h4YQujOXa3sr7kHzvPcncNh4809cNu2y1XEGE5Sb+GO32c4SXHY4H5EGFYV4UM8Jv5Nr2rsFMhOgewUyE6B7BTIToHsFMhOgewUyE6B7IYPfALcB0NZ5j6jXgAAAABJRU5ErkJggg==" id="image0_9763_13024" width="56" height="56" preserveAspectRatio="none"/></defs></svg>
